Suru++-Ubuntu/apps/symbolic/staruml-symbolic.svg

<svg width="16" height="16" version="1.1" xmlns="http://www.w3.org/2000/svg">
 <path d="m8.0182082 0.66897491-0.041229 0.082304v0.1245651l-0.041229-0.082303-2.4125607 4.9682371-5.4005095 0.8198792-0.07457-0.024219-0.04811 0.00747 0.03195 0.030746-0.02525 0.00374 0.04415 0.014505 4.0045547 3.8538737-0.00352 0.02088-0.8813859 5.343128-0.1035991 0.145179 0.087446-0.04672-0.011428 0.06976 0.014944-0.0079 0.073535-0.102919 4.7455694-2.533858 4.8543269 2.59193 0.01077 0.01516 0.01494 0.0079-0.0017-0.01011 0.03163 0.01692-0.03745-0.05241-0.901488-5.465627-0.0035-0.02088 4.004552-3.853876 0.04415-0.014505-0.02525-0.00374 0.03195-0.030746-0.04811-0.00747-0.07457 0.024218-5.400512-0.8198791z" style="fill:#808080"/>
</svg>

<svg xmlns="http://www.w3.org/2000/svg" width="16" height="16" version="1.1">
 <path style="fill:#808080" d="m 8.0182082,0.66897491 -0.041229,0.082304 v 0.1245651 L 7.9357502,0.79354101 5.5231895,5.7617781 0.12268,6.5816573 0.04811,6.5574383 0,6.5649083 l 0.03195,0.030746 -0.02525,0.00374 0.04415,0.014505 4.0045547,3.8538737 -0.00352,0.02088 L 3.1704988,15.831781 3.0668997,15.97696 3.1543457,15.93024 3.1429177,16 l 0.014944,-0.0079 0.073535,-0.102919 4.7455694,-2.533858 4.8543269,2.59193 0.01077,0.01516 0.01494,0.0079 -0.0017,-0.01011 0.03163,0.01692 -0.03745,-0.05241 -0.901488,-5.465627 -0.0035,-0.02088 4.004552,-3.853876 0.04415,-0.014505 -0.02525,-0.00374 0.03195,-0.030746 -0.04811,-0.00747 -0.07457,0.024218 -5.400512,-0.8198791 z"/>
</svg>
